packages/asc-assets/svg/Twitter.svg

<?xml version="1.0" encoding="UTF-8"?>
<svg viewBox="0 0 32 32" version="1.1" xmlns="http://www.w3.org/2000/svg" xmlns:xlink="http://www.w3.org/1999/xlink">
    <path d="M10.1694915,29 C22.2372881,29 28.7457627,18.8736842 28.7457627,10.2526316 L28.7457627,9.43157895 C29.9661017,8.47368421 31.1864407,7.37894737 32,6.01052632 C30.779661,6.55789474 29.559322,6.83157895 28.2033898,7.10526316 C29.559322,6.28421053 30.6440678,5.05263158 31.0508475,3.41052632 C29.8305085,4.23157895 28.3389831,4.77894737 26.8474576,5.05263158 C25.6271186,3.82105263 24,3 22.1016949,3 C18.440678,3 15.5932203,6.01052632 15.5932203,9.56842105 C15.5932203,10.1157895 15.5932203,10.5263158 15.7288136,11.0736842 C10.3050847,10.8 5.42372881,8.2 2.30508475,4.23157895 C1.76271186,4.91578947 1.49152542,6.14736842 1.49152542,7.37894737 C1.49152542,9.70526316 2.71186441,11.7578947 4.33898305,12.8526316 C3.25423729,12.8526316 2.30508475,12.5789474 1.3559322,12.0315789 L1.3559322,12.1684211 C1.3559322,15.3157895 3.66101695,18.0526316 6.6440678,18.6 C6.10169492,18.7368421 5.55932203,18.8736842 4.88135593,18.8736842 C4.47457627,18.8736842 4.06779661,18.8736842 3.66101695,18.7368421 C4.47457627,21.3368421 6.91525424,23.2526316 9.76271186,23.3894737 C7.45762712,25.1684211 4.74576271,26.2631579 1.62711864,26.2631579 C1.08474576,26.2631579 0.542372881,26.2631579 0,26.1263158 C2.98305085,27.9052632 6.37288136,29 10.1694915,29" id="path-1"></path>
</svg>

<svg viewBox="0 0 32 32"><path d="M10.17 29c12.07 0 18.58-10.13 18.58-18.75v-.82A12.97 12.97 0 0 0 32 6.01c-1.22.55-2.44.82-3.8 1.1a6.02 6.02 0 0 0 2.85-3.7 11.27 11.27 0 0 1-4.2 1.64A6.63 6.63 0 0 0 22.1 3a6.54 6.54 0 0 0-6.5 6.57c0 .55 0 .96.13 1.5A18.25 18.25 0 0 1 2.3 4.23c-.55.69-.82 1.92-.82 3.15a6.68 6.68 0 0 0 2.85 5.47 5.77 5.77 0 0 1-2.98-.82v.14c0 3.15 2.3 5.88 5.28 6.43-.54.14-1.08.27-1.76.27-.4 0-.81 0-1.22-.13a6.75 6.75 0 0 0 6.1 4.65 13.1 13.1 0 0 1-8.13 2.87c-.55 0-1.09 0-1.63-.13A19.61 19.61 0 0 0 10.17 29"></path></svg>
